flaticon/gastronomy/rice.svg

<svg xmlns="http://www.w3.org/2000/svg" width="32" height="32" viewBox="0 0 24 24">
    <path d="M 23.804688 0.472656 C 23.59375 0.320312 23.300781 0.363281 23.144531 0.578125 L 18.714844 6.652344 C 18.539062 6.496094 18.308594 6.429688 18.082031 6.464844 C 18.078125 6.292969 18.011719 6.125 17.898438 5.992188 L 19.773438 0.660156 C 19.859375 0.414062 19.730469 0.144531 19.484375 0.0585938 C 19.238281 -0.0273438 18.96875 0.101562 18.882812 0.347656 L 17.039062 5.589844 C 16.976562 5.417969 16.855469 5.269531 16.683594 5.179688 C 16.46875 5.058594 16.214844 5.050781 16 5.144531 C 15.933594 4.917969 15.765625 4.726562 15.535156 4.636719 C 15.304688 4.546875 15.054688 4.570312 14.851562 4.6875 C 14.753906 4.472656 14.566406 4.304688 14.324219 4.246094 C 14.085938 4.183594 13.839844 4.238281 13.652344 4.378906 C 13.53125 4.175781 13.320312 4.035156 13.078125 4.007812 C 12.828125 3.972656 12.59375 4.058594 12.425781 4.226562 C 12.136719 3.851562 11.480469 3.851562 11.191406 4.226562 C 11.023438 4.058594 10.785156 3.972656 10.539062 4.007812 C 10.292969 4.035156 10.085938 4.175781 9.964844 4.378906 C 9.777344 4.238281 9.53125 4.179688 9.289062 4.246094 C 9.050781 4.304688 8.859375 4.472656 8.765625 4.6875 C 8.5625 4.566406 8.3125 4.546875 8.082031 4.636719 C 7.976562 4.679688 7.894531 4.742188 7.820312 4.816406 C 7.246094 4.1875 6.488281 3.523438 5.691406 3.261719 L 5.277344 3.128906 L 5.109375 3.527344 C 5.074219 3.617188 4.429688 5.1875 4.835938 6.722656 C 4.800781 6.761719 4.765625 6.804688 4.738281 6.851562 C 4.65625 6.992188 4.621094 7.152344 4.632812 7.3125 C 4.40625 7.320312 4.167969 7.40625 4.011719 7.597656 C 3.851562 7.785156 3.796875 8.03125 3.847656 8.261719 C 3.613281 8.285156 3.394531 8.414062 3.261719 8.625 C 3.128906 8.832031 3.105469 9.085938 3.183594 9.304688 C 2.953125 9.359375 2.753906 9.515625 2.648438 9.738281 C 2.542969 9.960938 2.550781 10.214844 2.65625 10.425781 C 2.535156 10.46875 2.425781 10.542969 2.339844 10.640625 C 2.316406 10.671875 2.292969 10.707031 2.273438 10.742188 L 1.121094 10.742188 C 0.8125 10.742188 0.515625 10.871094 0.304688 11.097656 C 0.0898438 11.324219 -0.0195312 11.632812 0.00390625 11.945312 C 0.28125 16.078125 2.910156 18.152344 6.773438 19.996094 C 7.203125 20.203125 7.558594 20.542969 7.773438 20.960938 C 7.984375 21.367188 7.953125 21.894531 7.683594 22.339844 C 7.480469 22.675781 7.472656 23.082031 7.667969 23.421875 C 7.859375 23.765625 8.210938 23.96875 8.601562 23.96875 L 14.972656 23.96875 C 15.367188 23.96875 15.71875 23.765625 15.910156 23.421875 C 16.101562 23.082031 16.097656 22.675781 15.890625 22.332031 C 15.625 21.890625 15.59375 21.367188 15.804688 20.960938 C 16.019531 20.542969 16.375 20.203125 16.804688 19.996094 C 20.667969 18.152344 23.292969 16.078125 23.574219 11.945312 C 23.59375 11.632812 23.484375 11.324219 23.273438 11.097656 C 23.0625 10.871094 22.761719 10.742188 22.457031 10.742188 L 21.34375 10.742188 C 21.324219 10.707031 21.304688 10.671875 21.277344 10.640625 C 21.191406 10.542969 21.082031 10.46875 20.960938 10.425781 C 21.066406 10.214844 21.074219 9.960938 20.96875 9.738281 C 20.863281 9.515625 20.664062 9.359375 20.433594 9.304688 C 20.511719 9.085938 20.488281 8.832031 20.355469 8.625 C 20.222656 8.414062 20.003906 8.285156 19.769531 8.261719 C 19.820312 8.03125 19.765625 7.785156 19.609375 7.597656 C 19.535156 7.507812 19.441406 7.441406 19.34375 7.398438 L 23.910156 1.132812 C 24.0625 0.921875 24.015625 0.625 23.804688 0.472656 Z M 5.832031 4.355469 C 6.488281 4.730469 7.136719 5.425781 7.554688 5.96875 C 7.625 6.058594 7.6875 6.144531 7.746094 6.226562 C 7.75 6.230469 7.753906 6.234375 7.753906 6.238281 C 7.816406 6.328125 7.871094 6.410156 7.914062 6.476562 C 8.0625 6.726562 8.082031 6.964844 8.023438 7.171875 C 7.964844 7.378906 7.832031 7.550781 7.6875 7.671875 C 7.386719 7.917969 6.878906 8.054688 6.4375 7.644531 L 6.417969 7.625 L 6.398438 7.609375 C 6.398438 7.605469 6.398438 7.605469 6.394531 7.601562 C 6.277344 7.488281 6.171875 7.363281 6.082031 7.226562 C 6.078125 7.21875 6.074219 7.214844 6.070312 7.207031 C 5.984375 7.074219 5.910156 6.929688 5.847656 6.769531 C 5.507812 5.902344 5.675781 4.917969 5.832031 4.355469 Z M 22.582031 11.742188 C 22.601562 11.761719 22.636719 11.8125 22.632812 11.882812 C 22.382812 15.570312 20.0625 17.394531 16.398438 19.144531 C 15.78125 19.4375 15.273438 19.929688 14.964844 20.527344 C 14.601562 21.222656 14.648438 22.101562 15.085938 22.828125 C 15.117188 22.878906 15.105469 22.929688 15.085938 22.957031 C 15.070312 22.988281 15.035156 23.023438 14.972656 23.023438 L 8.601562 23.023438 C 8.539062 23.023438 8.507812 22.988281 8.488281 22.957031 C 8.472656 22.925781 8.460938 22.878906 8.496094 22.820312 C 8.929688 22.101562 8.972656 21.222656 8.613281 20.527344 C 8.304688 19.929688 7.792969 19.4375 7.179688 19.144531 C 3.515625 17.394531 1.195312 15.570312 0.945312 11.882812 C 0.941406 11.8125 0.972656 11.761719 0.996094 11.742188 C 1.019531 11.714844 1.058594 11.6875 1.121094 11.6875 L 22.457031 11.6875 C 22.515625 11.6875 22.558594 11.714844 22.582031 11.742188 Z M 18.753906 8.304688 C 18.714844 8.507812 18.761719 8.722656 18.894531 8.902344 C 19.023438 9.082031 19.210938 9.191406 19.417969 9.21875 C 19.355469 9.417969 19.375 9.636719 19.480469 9.832031 C 19.585938 10.023438 19.761719 10.15625 19.964844 10.210938 C 19.890625 10.375 19.871094 10.5625 19.921875 10.742188 L 3.695312 10.742188 C 3.746094 10.5625 3.730469 10.375 3.65625 10.210938 C 3.855469 10.15625 4.03125 10.023438 4.136719 9.832031 C 4.242188 9.636719 4.261719 9.417969 4.199219 9.21875 C 4.40625 9.191406 4.597656 9.082031 4.726562 8.902344 C 4.855469 8.722656 4.902344 8.507812 4.867188 8.304688 C 5.074219 8.300781 5.277344 8.214844 5.425781 8.054688 C 5.445312 8.035156 5.460938 8.015625 5.476562 7.996094 C 5.558594 8.097656 5.648438 8.199219 5.746094 8.289062 L 5.796875 8.339844 C 5.824219 8.363281 5.851562 8.382812 5.878906 8.402344 C 5.945312 8.457031 6.011719 8.515625 6.078125 8.558594 C 6.121094 8.585938 6.164062 8.605469 6.207031 8.625 C 6.265625 8.660156 6.324219 8.691406 6.386719 8.71875 C 6.433594 8.738281 6.480469 8.746094 6.53125 8.761719 C 6.589844 8.78125 6.648438 8.800781 6.710938 8.816406 C 6.757812 8.824219 6.808594 8.828125 6.859375 8.832031 C 6.917969 8.839844 6.980469 8.847656 7.042969 8.851562 C 7.050781 8.851562 7.058594 8.851562 7.066406 8.851562 C 7.121094 8.851562 7.175781 8.84375 7.230469 8.835938 C 7.273438 8.832031 7.320312 8.832031 7.363281 8.824219 C 7.429688 8.816406 7.496094 8.792969 7.558594 8.777344 C 7.601562 8.765625 7.640625 8.757812 7.683594 8.742188 C 7.757812 8.71875 7.828125 8.679688 7.902344 8.644531 C 7.929688 8.632812 7.960938 8.621094 7.992188 8.605469 C 8.089844 8.546875 8.1875 8.480469 8.28125 8.40625 C 8.632812 8.121094 8.855469 7.75 8.945312 7.355469 C 9.050781 6.90625 8.984375 6.421875 8.71875 5.988281 C 8.71875 5.988281 8.71875 5.984375 8.714844 5.980469 C 8.671875 5.910156 8.609375 5.816406 8.535156 5.710938 C 8.53125 5.699219 8.527344 5.691406 8.519531 5.683594 C 8.695312 5.769531 8.90625 5.785156 9.105469 5.722656 C 9.3125 5.65625 9.476562 5.507812 9.566406 5.320312 C 9.738281 5.441406 9.953125 5.488281 10.167969 5.449219 C 10.382812 5.40625 10.566406 5.28125 10.679688 5.105469 C 10.832031 5.25 11.042969 5.328125 11.257812 5.308594 C 11.480469 5.296875 11.675781 5.195312 11.808594 5.035156 C 11.945312 5.195312 12.140625 5.296875 12.359375 5.308594 C 12.578125 5.324219 12.785156 5.25 12.941406 5.105469 C 13.054688 5.28125 13.234375 5.40625 13.449219 5.449219 C 13.667969 5.488281 13.882812 5.441406 14.050781 5.320312 C 14.140625 5.507812 14.304688 5.652344 14.515625 5.722656 C 14.722656 5.789062 14.945312 5.769531 15.128906 5.667969 C 15.195312 5.867188 15.339844 6.035156 15.539062 6.128906 C 15.738281 6.21875 15.957031 6.226562 16.152344 6.152344 C 16.195312 6.355469 16.316406 6.539062 16.5 6.65625 C 16.546875 6.6875 16.59375 6.710938 16.644531 6.726562 L 15.8125 9.09375 C 15.722656 9.339844 15.855469 9.609375 16.101562 9.695312 C 16.152344 9.714844 16.203125 9.722656 16.257812 9.722656 C 16.453125 9.722656 16.632812 9.601562 16.703125 9.40625 L 17.433594 7.332031 C 17.59375 7.449219 17.789062 7.5 17.980469 7.480469 C 17.976562 7.539062 17.980469 7.59375 17.992188 7.652344 L 16.71875 9.398438 C 16.5625 9.609375 16.609375 9.902344 16.820312 10.058594 C 16.90625 10.117188 17.003906 10.148438 17.097656 10.148438 C 17.246094 10.148438 17.386719 10.082031 17.480469 9.953125 L 18.6875 8.296875 C 18.710938 8.296875 18.730469 8.304688 18.753906 8.304688 Z M 18.753906 8.304688"/>
    <path d="M11.648438 7.769531L12.121094 7.296875C12.308594 7.109375 12.308594 6.8125 12.121094 6.628906 11.9375 6.441406 11.640625 6.441406 11.453125 6.628906L10.980469 7.101562C10.796875 7.285156 10.796875 7.582031 10.980469 7.769531 11.074219 7.859375 11.195312 7.90625 11.316406 7.90625 11.4375 7.90625 11.558594 7.859375 11.648438 7.769531zM9.761719 8.046875C9.574219 7.859375 9.277344 7.859375 9.09375 8.046875 8.90625 8.230469 8.90625 8.527344 9.09375 8.714844L9.566406 9.1875C9.65625 9.277344 9.777344 9.324219 9.898438 9.324219 10.019531 9.324219 10.140625 9.277344 10.234375 9.1875 10.417969 9 10.417969 8.703125 10.234375 8.519531zM11.925781 8.988281L11.453125 9.460938C11.269531 9.648438 11.269531 9.945312 11.453125 10.128906 11.546875 10.222656 11.667969 10.269531 11.789062 10.269531 11.910156 10.269531 12.03125 10.222656 12.121094 10.128906L12.59375 9.65625C12.78125 9.472656 12.78125 9.175781 12.59375 8.988281 12.410156 8.804688 12.113281 8.804688 11.925781 8.988281zM14.152344 8.378906C14.273438 8.378906 14.390625 8.332031 14.484375 8.242188 14.667969 8.054688 14.667969 7.757812 14.484375 7.574219L14.011719 7.101562C13.828125 6.914062 13.527344 6.914062 13.34375 7.101562 13.160156 7.285156 13.160156 7.582031 13.34375 7.769531L13.816406 8.242188C13.910156 8.332031 14.03125 8.378906 14.152344 8.378906zM14.289062 8.988281L13.816406 9.460938C13.632812 9.648438 13.632812 9.945312 13.816406 10.128906 13.910156 10.222656 14.03125 10.269531 14.152344 10.269531 14.273438 10.269531 14.390625 10.222656 14.484375 10.128906L14.957031 9.65625C15.140625 9.472656 15.140625 9.175781 14.957031 8.988281 14.773438 8.804688 14.472656 8.804688 14.289062 8.988281zM5.785156 8.988281L5.3125 9.460938C5.128906 9.648438 5.128906 9.945312 5.3125 10.128906 5.40625 10.222656 5.527344 10.269531 5.648438 10.269531 5.769531 10.269531 5.890625 10.222656 5.980469 10.128906L6.453125 9.65625C6.636719 9.472656 6.636719 9.175781 6.453125 8.988281 6.269531 8.804688 5.96875 8.804688 5.785156 8.988281zM8.480469 9.324219L8.007812 9.324219C7.75 9.324219 7.535156 9.535156 7.535156 9.796875 7.535156 10.058594 7.75 10.269531 8.007812 10.269531L8.480469 10.269531C8.742188 10.269531 8.953125 10.058594 8.953125 9.796875 8.953125 9.535156 8.742188 9.324219 8.480469 9.324219zM10.144531 18.347656C8.308594 17.640625 6.929688 16.871094 5.804688 15.929688 5.601562 15.761719 5.304688 15.789062 5.136719 15.988281 4.972656 16.1875 4.996094 16.484375 5.195312 16.652344 6.402344 17.664062 7.867188 18.480469 9.804688 19.230469 9.859375 19.25 9.917969 19.261719 9.976562 19.261719 10.164062 19.261719 10.34375 19.144531 10.417969 18.957031 10.511719 18.714844 10.390625 18.441406 10.144531 18.347656zM3.90625 13.480469C3.800781 13.242188 3.523438 13.128906 3.285156 13.234375 3.046875 13.339844 2.9375 13.617188 3.039062 13.855469 3.257812 14.359375 3.542969 14.839844 3.882812 15.289062 3.976562 15.410156 4.117188 15.476562 4.257812 15.476562 4.359375 15.476562 4.460938 15.445312 4.546875 15.378906 4.753906 15.21875 4.792969 14.921875 4.636719 14.714844 4.339844 14.328125 4.09375 13.914062 3.90625 13.480469zM3.90625 13.480469"/>
</svg>

<svg xmlns="http://www.w3.org/2000/svg" width="32" height="32" viewBox="0 0 24 24">
    <path d="M23.805.473a.47.47 0 0 0-.66.105l-4.43 6.074a.77.77 0 0 0-.633-.187.76.76 0 0 0-.184-.473L19.773.66a.472.472 0 1 0-.89-.312L17.039 5.59a.745.745 0 0 0-.355-.41.768.768 0 0 0-.684-.035.78.78 0 0 0-.465-.508.79.79 0 0 0-.683.05.781.781 0 0 0-.528-.44.787.787 0 0 0-.672.132.77.77 0 0 0-.574-.371.763.763 0 0 0-.652.219c-.29-.375-.946-.375-1.235 0a.766.766 0 0 0-.652-.22.763.763 0 0 0-.574.372.78.78 0 0 0-.676-.133.775.775 0 0 0-.523.441.777.777 0 0 0-.684-.05.781.781 0 0 0-.262.18c-.574-.63-1.332-1.294-2.129-1.555l-.414-.133-.168.398c-.035.09-.68 1.66-.273 3.196a.799.799 0 0 0-.098.129.796.796 0 0 0-.105.46.83.83 0 0 0-.621.286.765.765 0 0 0-.164.664.784.784 0 0 0-.586.363.78.78 0 0 0-.078.68.795.795 0 0 0-.536.433.786.786 0 0 0 .008.688.762.762 0 0 0-.316.215.909.909 0 0 0-.067.101H1.121c-.308 0-.605.13-.816.356a1.112 1.112 0 0 0-.301.847c.277 4.133 2.906 6.207 6.77 8.051.43.207.785.547 1 .965.21.406.18.934-.09 1.379-.204.336-.211.742-.016 1.082.191.344.543.547.934.547h6.37c.395 0 .747-.203.938-.547.192-.34.188-.746-.02-1.09-.265-.441-.296-.965-.085-1.371.215-.418.57-.758 1-.965 3.863-1.844 6.488-3.918 6.77-8.05a1.124 1.124 0 0 0-1.117-1.203h-1.114a.567.567 0 0 0-.067-.102.762.762 0 0 0-.316-.215.786.786 0 0 0 .008-.688.795.795 0 0 0-.535-.433.78.78 0 0 0-.079-.68.784.784 0 0 0-.585-.363.776.776 0 0 0-.16-.664.722.722 0 0 0-.266-.2l4.566-6.265a.474.474 0 0 0-.105-.66zM5.832 4.355c.656.375 1.305 1.07 1.723 1.614.07.09.133.176.191.258a8.707 8.707 0 0 1 .168.25c.149.25.168.488.11.695a1.036 1.036 0 0 1-.336.5c-.301.246-.81.383-1.25-.027l-.02-.02-.02-.016c0-.004 0-.004-.003-.007a2.212 2.212 0 0 1-.313-.375l-.012-.02a2.418 2.418 0 0 1-.222-.437c-.34-.868-.172-1.852-.016-2.415zm16.75 7.387c.02.02.055.07.05.14-.25 3.688-2.57 5.513-6.234 7.263a3.132 3.132 0 0 0-1.433 1.382c-.363.696-.317 1.575.12 2.301.032.05.02.102 0 .129a.121.121 0 0 1-.112.066H8.602c-.063 0-.094-.035-.114-.066a.133.133 0 0 1 .008-.137c.434-.718.477-1.597.117-2.293a3.15 3.15 0 0 0-1.433-1.382c-3.664-1.75-5.985-3.575-6.235-7.262a.176.176 0 0 1 .051-.14.158.158 0 0 1 .125-.056h21.336c.059 0 .102.028.125.055zm-3.828-3.437a.76.76 0 0 0 .14.597c.13.18.317.29.524.317a.787.787 0 0 0 .547.992.776.776 0 0 0-.043.531H3.695a.775.775 0 0 0-.039-.531.785.785 0 0 0 .543-.992.792.792 0 0 0 .668-.914.78.78 0 0 0 .61-.309c.082.102.171.203.27.293l.05.05c.027.024.055.044.082.063.066.055.133.114.2.157.042.027.085.046.128.066.059.035.117.066.18.094.047.02.093.027.144.043.059.02.117.039.18.054.047.008.098.012.148.016.059.008.121.016.184.02h.023c.055 0 .11-.008.164-.016.043-.004.09-.004.133-.012.067-.008.133-.031.196-.047.043-.011.082-.02.125-.035.074-.023.144-.062.218-.097.028-.012.059-.024.09-.04.098-.058.196-.125.29-.199.35-.285.573-.656.663-1.05.106-.45.04-.934-.226-1.368 0 0 0-.004-.004-.008a5.32 5.32 0 0 0-.18-.27.063.063 0 0 0-.015-.026.796.796 0 0 0 .585.039.773.773 0 0 0 .461-.403.79.79 0 0 0 1.113-.215.746.746 0 0 0 .579.204.761.761 0 0 0 .55-.274c.137.16.333.262.551.274a.77.77 0 0 0 .582-.204.782.782 0 0 0 1.11.215c.09.188.254.332.465.403.207.066.43.047.613-.055a.781.781 0 0 0 1.023.484.79.79 0 0 0 .493.575l-.832 2.367a.469.469 0 0 0 .445.629.473.473 0 0 0 .445-.317l.73-2.074a.79.79 0 0 0 .547.148.637.637 0 0 0 .012.172L16.72 9.398a.47.47 0 1 0 .761.555l1.207-1.656c.024 0 .043.008.067.008zm0 0"/>
    <path d="M11.648 7.77l.473-.473a.467.467 0 0 0 0-.668.467.467 0 0 0-.668 0l-.473.473a.474.474 0 0 0 0 .668c.094.09.215.136.336.136a.47.47 0 0 0 .332-.136zm0 0M9.762 8.047a.467.467 0 0 0-.668 0 .467.467 0 0 0 0 .668l.472.473c.09.09.211.136.332.136a.486.486 0 0 0 .336-.136.474.474 0 0 0 0-.668zm0 0M11.926 8.988l-.473.473a.474.474 0 0 0 .336.809.458.458 0 0 0 .332-.141l.473-.473a.467.467 0 0 0 0-.668.474.474 0 0 0-.668 0zm0 0M14.152 8.379a.477.477 0 0 0 .332-.137.474.474 0 0 0 0-.668l-.472-.472a.467.467 0 0 0-.668 0 .474.474 0 0 0 0 .668l.472.472c.094.09.215.137.336.137zm0 0M14.29 8.988l-.474.473a.474.474 0 0 0 .336.809.465.465 0 0 0 .332-.141l.473-.473a.474.474 0 0 0 0-.668.474.474 0 0 0-.668 0zm0 0M5.785 8.988l-.473.473a.474.474 0 0 0 .336.809.458.458 0 0 0 .332-.141l.473-.473a.474.474 0 0 0 0-.668.474.474 0 0 0-.668 0zm0 0M8.48 9.324h-.472a.474.474 0 0 0-.473.473c0 .262.215.473.473.473h.472a.472.472 0 1 0 0-.946zm0 0M10.145 18.348c-1.836-.707-3.215-1.477-4.34-2.418a.475.475 0 0 0-.668.058c-.164.2-.14.496.058.664 1.207 1.012 2.672 1.828 4.61 2.578a.48.48 0 0 0 .613-.273.47.47 0 0 0-.273-.61zm0 0M3.906 13.48a.473.473 0 0 0-.867.375c.219.504.504.985.844 1.434a.47.47 0 0 0 .664.09.477.477 0 0 0 .09-.664 5.833 5.833 0 0 1-.73-1.235zm0 0"/>
</svg>
